src/assets/images/footer/envelope.svg

<svg width="17" height="15" viewBox="0 0 17 15" fill="none" xmlns="http://www.w3.org/2000/svg">
<path fill-rule="evenodd" clip-rule="evenodd" d="M15.2337 0.666626H1.72725C0.798681 0.666626 0.047382 1.42663 0.047382 2.35551L0.0389404 12.4888C0.0389404 13.4177 0.798681 14.1777 1.72725 14.1777H15.2337C16.1623 14.1777 16.9221 13.4177 16.9221 12.4888V2.35551C16.9221 1.42663 16.1623 0.666626 15.2337 0.666626ZM15.2338 4.04448L8.48054 8.2667L1.72729 4.04448V2.35559L8.48054 6.57781L15.2338 2.35559V4.04448Z" fill="black"/>
</svg>

<svg width="17" height="15" fill="none" xmlns="http://www.w3.org/2000/svg"><path fill-rule="evenodd" clip-rule="evenodd" d="M15.234.667H1.727c-.928 0-1.68.76-1.68 1.689L.04 12.489c0 .929.76 1.689 1.688 1.689h13.507c.928 0 1.688-.76 1.688-1.69V2.357c0-.93-.76-1.69-1.688-1.69zm0 3.377L8.48 8.267 1.727 4.044V2.356l6.754 4.222 6.753-4.222v1.688z" fill="#000"/></svg>
